web/assets/img/functions/970_2.svg

<svg width="512" height="512" viewBox="0 0 512 512" fill="none" xmlns="http://www.w3.org/2000/svg">
    <path fill-rule="evenodd" clip-rule="evenodd"
          d="M166 179.939C166 174.417 170.477 169.939 176 169.939H336C341.523 169.939 346 174.417 346 179.939V243.939C346 249.462 341.523 253.939 336 253.939H176C170.477 253.939 166 249.462 166 243.939V179.939ZM186 189.939V233.939H326V189.939H186Z"
          fill="#12A71E"/>
    <path fill-rule="evenodd" clip-rule="evenodd"
          d="M236 2.97852C230.477 2.97852 226 7.45567 226 12.9785V50.9785H196C190.477 50.9785 186 55.4557 186 60.9785V90.9785H128C104.804 90.9785 86 109.783 86 132.979V420.979C86 443.504 103.733 461.888 126 462.932V500.979C126 506.501 130.477 510.979 136 510.979H176C181.523 510.979 186 506.501 186 500.979V462.979H326V500.979C326 506.501 330.477 510.979 336 510.979H376C381.523 510.979 386 506.501 386 500.979V462.932C408.267 461.888 426 443.504 426 420.979V132.979C426 109.783 407.196 90.9785 384 90.9785H326V60.9785C326 55.4557 321.523 50.9785 316 50.9785H286V12.9785C286 7.45567 281.523 2.97852 276 2.97852H236ZM366 462.979H346V490.979H366V462.979ZM376 442.979H384C396.15 442.979 406 433.129 406 420.979V132.979C406 120.828 396.15 110.979 384 110.979H316H196H128C115.85 110.979 106 120.828 106 132.979V420.979C106 433.129 115.85 442.979 128 442.979H136H176H336H376ZM146 490.979V462.979H166V490.979H146ZM266 50.9785V22.9785H246V50.9785H266ZM236 70.9785H206V90.9785H306V70.9785H276H236Z"
          fill="#282828"/>
</svg>

<?xml version="1.0" encoding="utf-8"?>
<!-- Generator: Adobe Illustrator 28.2.0, SVG Export Plug-In . SVG Version: 6.00 Build 0)  -->
<svg version="1.1" id="Calque_1" xmlns="http://www.w3.org/2000/svg" xmlns:xlink="http://www.w3.org/1999/xlink" x="0px" y="0px"
	 viewBox="0 0 512 512" style="enable-background:new 0 0 512 512;" xml:space="preserve">
<style type="text/css">
	.st0{fill-rule:evenodd;clip-rule:evenodd;fill:#33B0DF;}
	.st1{fill-rule:evenodd;clip-rule:evenodd;fill:#282828;}
</style>
<path class="st0" d="M166,179.9c0-5.5,4.5-10,10-10h160c5.5,0,10,4.5,10,10v64c0,5.5-4.5,10-10,10H176c-5.5,0-10-4.5-10-10V179.9z
	 M186,189.9v44h140v-44H186z"/>
<path class="st1" d="M236,3c-5.5,0-10,4.5-10,10v38h-30c-5.5,0-10,4.5-10,10v30h-58c-23.2,0-42,18.8-42,42v288
	c0,22.5,17.7,40.9,40,42v38c0,5.5,4.5,10,10,10h40c5.5,0,10-4.5,10-10v-38h140v38c0,5.5,4.5,10,10,10h40c5.5,0,10-4.5,10-10v-38
	c22.3-1,40-19.4,40-42V133c0-23.2-18.8-42-42-42h-58V61c0-5.5-4.5-10-10-10h-30V13c0-5.5-4.5-10-10-10H236z M366,463h-20v28h20V463z
	 M376,443h8c12.1,0,22-9.9,22-22V133c0-12.2-9.9-22-22-22h-68H196h-68c-12.2,0-22,9.8-22,22v288c0,12.1,9.8,22,22,22h8h40h160H376z
	 M146,491v-28h20v28H146z M266,51V23h-20v28H266z M236,71h-30v20h100V71h-30H236z"/>
</svg>
